images/icons/check-circle.svg

<svg width="64" height="64" viewBox="0 0 64 64" fill="none" xmlns="http://www.w3.org/2000/svg">
<path d="M32 1C14.8791 1 1 14.8791 1 32C1 49.1209 14.8791 63 32 63C49.1209 63 63 49.1209 63 32C63 14.8791 49.1209 1 32 1ZM32 7C45.8165 7 57 18.1814 57 32C57 45.8165 45.8186 57 32 57C18.1835 57 7 45.8186 7 32C7 18.1835 18.1814 7 32 7ZM49.5255 23.2834L46.7085 20.4436C46.1251 19.8555 45.1754 19.8516 44.5872 20.4351L26.9182 37.9621L19.4443 30.4275C18.8609 29.8394 17.9111 29.8355 17.323 30.4189L14.4831 33.2359C13.895 33.8192 13.8911 34.769 14.4746 35.3573L25.8223 46.7967C26.4056 47.3849 27.3554 47.3887 27.9435 46.8052L49.5171 25.4048C50.1051 24.8213 50.1089 23.8715 49.5255 23.2834Z" fill="black"/>
</svg>

<svg width="64" height="64" viewBox="0 0 64 64" fill="none" xmlns="http://www.w3.org/2000/svg"><path d="M32 1C14.88 1 1 14.88 1 32c0 17.12 13.88 31 31 31 17.12 0 31-13.88 31-31C63 14.88 49.12 1 32 1Zm0 6c13.816 0 25 11.181 25 25 0 13.816-11.181 25-25 25C18.183 57 7 45.819 7 32 7 18.183 18.181 7 32 7Zm17.526 16.283-2.818-2.84a1.5 1.5 0 0 0-2.12-.008l-17.67 17.527-7.474-7.535a1.5 1.5 0 0 0-2.121-.008l-2.84 2.817a1.5 1.5 0 0 0-.008 2.121l11.347 11.44a1.5 1.5 0 0 0 2.122.008l21.573-21.4a1.5 1.5 0 0 0 .008-2.122Z" fill="#000"/></svg>
